Newaita-dark/apps/48/mpv.svg

<svg height="48pt" viewBox="0 0 48 48" width="48pt" xmlns="http://www.w3.org/2000/svg" xmlns:xlink="http://www.w3.org/1999/xlink"><linearGradient id="a" gradientUnits="userSpaceOnUse" x1="23.81478" x2="23.81478" y1="42.0509045" y2="44.03547050005"><stop offset="0" stop-opacity=".27451"/><stop offset="1" stop-opacity="0"/></linearGradient><linearGradient id="b"><stop offset="0" stop-opacity=".313725"/><stop offset=".222222" stop-opacity=".27451"/><stop offset="1" stop-opacity="0"/></linearGradient><radialGradient id="c" cx="450.908936" cy="189.579361" gradientTransform="matrix(.00000026 -.117199 -.210958 -.00000015 79.684395 95.392999)" gradientUnits="userSpaceOnUse" r="21.166656" xlink:href="#b"/><radialGradient id="d" cx="450.908936" cy="189.579361" gradientTransform="matrix(-.00000026 .117199 .210958 .00000015 -31.80678 -11.291218)" gradientUnits="userSpaceOnUse" r="21.166656" xlink:href="#b"/><radialGradient id="e" cx="450.908936" cy="189.579361" gradientTransform="matrix(-.00000026 -.117199 .210958 -.00000015 -31.80678 95.392999)" gradientUnits="userSpaceOnUse" r="21.166656" xlink:href="#b"/><radialGradient id="f" cx="450.908936" cy="189.579361" gradientTransform="matrix(.00000026 .117199 -.210958 .00000015 79.684393 -11.291219)" gradientUnits="userSpaceOnUse" r="21.166656" xlink:href="#b"/><linearGradient id="g" gradientUnits="userSpaceOnUse" x1="23.814786" x2="23.814786" y1="42.0509015" y2="4.3441580001"><stop offset="0" stop-color="#ab47bc"/><stop offset="1" stop-color="#ba68c8"/></linearGradient><linearGradient id="h"><stop offset="0" stop-color="#e0e0e0"/><stop offset="1" stop-color="#fafafa"/></linearGradient><linearGradient id="i" gradientUnits="userSpaceOnUse" x1="370.416656" x2="370.416656" xlink:href="#h" y1="170.00001" y2="191.166666"/><linearGradient id="j" gradientUnits="userSpaceOnUse" x1="211.666672" x2="211.666672" y1="170.00001" y2="191.166666"><stop offset="0" stop-color="#e53935"/><stop offset="1" stop-color="#ef5350"/></linearGradient><linearGradient id="k" gradientUnits="userSpaceOnUse" x1="312.208323" x2="312.208323" xlink:href="#h" y1="148.833338" y2="212.333338"/><linearGradient id="l" gradientUnits="userSpaceOnUse" x1="23.3138" x2="23.3138" y1="25.43290162499" y2="10.5486615001"><stop offset="0" stop-color="#e0e0e0"/><stop offset="1" stop-color="#f5f5f5"/></linearGradient><path d="m7.691406 42.050781h32.496094v1.984375h-32.496094zm0 0" fill="url(#a)"/><path d="m40.1875 42.050781h3.96875v-1.984375h-3.96875zm0 0" fill="url(#c)"/><path d="m7.691406 42.050781h-3.96875v1.984375h3.96875zm0 0" fill="url(#d)"/><path d="m7.691406 42.050781h-3.96875v-1.984375h3.96875zm0 0" fill="url(#e)"/><path d="m40.1875 42.050781h3.96875v1.984375h-3.96875zm0 0" fill="url(#f)"/><path d="m4.960938 4.34375h37.707031c1.097656 0 1.984375.890625 1.984375 1.984375v33.738281c0 1.097656-.886719 1.984375-1.984375 1.984375h-37.707031c-1.09375 0-1.984376-.886719-1.984376-1.984375v-33.738281c0-1.09375.890626-1.984375 1.984376-1.984375zm0 0" fill="url(#g)"/><g stroke="#212121" stroke-linecap="round" stroke-width="3"><path d="m74.076259 170.004901h359.840637c5.832777 0 10.582323 4.749546 10.582323 10.582322 0 5.832777-4.749546 10.582323-10.582323 10.582323h-359.840637c-5.832776 0-10.582322-4.749546-10.582322-10.582323 0-5.832776 4.749546-10.582322 10.582322-10.582322zm0 0" fill="url(#i)" transform="matrix(.093759 0 0 .093759 0 20.158175)"/><path d="m74.076259 170.004901h264.599732c5.832777 0 10.582323 4.291256 10.582323 9.582418v1.999809c0 5.291161-4.749546 9.582418-10.582323 9.582418h-264.599732c-5.832776 0-10.582322-4.291257-10.582322-9.582418v-1.999809c0-5.291162 4.749546-9.582418 10.582322-9.582418zm0 0" fill="url(#j)" transform="matrix(.093759 0 0 .093759 0 20.158175)"/><path d="m322.802507 148.840255c17.539992 0 31.746969 14.206977 31.746969 31.746968 0 17.539992-14.206977 31.746969-31.746969 31.746969-17.539991 0-31.746968-14.206977-31.746968-31.746969 0-17.539991 14.206977-31.746968 31.746968-31.746968zm0 0" fill="url(#k)" transform="matrix(.093759 0 0 .093759 0 20.158175)"/></g><path d="m4.960938 4.34375c-1.097657 0-1.984376.886719-1.984376 1.984375v.496094c0-1.097657.886719-1.984375 1.984376-1.984375h37.707031c1.101562 0 1.984375.886718 1.984375 1.984375v-.496094c0-1.097656-.882813-1.984375-1.984375-1.984375zm0 0" fill="#fff" fill-opacity=".392157"/><path d="m4.960938 42.050781c-1.097657 0-1.984376-.886719-1.984376-1.984375v-.496094c0 1.097657.886719 1.984376 1.984376 1.984376h37.707031c1.101562 0 1.984375-.886719 1.984375-1.984376v.496094c0 1.097656-.882813 1.984375-1.984375 1.984375zm0 0" fill-opacity=".235294"/><path d="m19.378906 10.554688c-.558594-.019532-1.023437.429687-1.023437.984374v12.902344c0 .765625.832031 1.238282 1.492187.847656l10.914063-6.449218c.648437-.382813.648437-1.316406 0-1.699219l-10.914063-6.449219c-.144531-.085937-.304687-.132812-.46875-.136718zm0 0" fill="url(#l)"/><path d="m19.324219 10.554688c-.53125.007812-.96875.445312-.96875.984374v.492188c0-.558594.464843-1.003906 1.023437-.988281.164063.007812.324219.054687.46875.136719l10.914063 6.453124c.242187.140626.394531.363282.453125.601563.101562-.398437-.046875-.855469-.453125-1.09375l-10.914063-6.449219c-.144531-.085937-.304687-.132812-.46875-.136718-.019531 0-.035156 0-.054687 0zm0 0" fill="#fff" fill-opacity=".588235"/><path d="m19.324219 25.433594c-.53125-.011719-.96875-.445313-.96875-.988282v-.492187c0 .558594.464843 1.007813 1.023437.988281.164063-.003906.324219-.050781.46875-.136718l10.914063-6.449219c.242187-.144531.394531-.363281.453125-.605469.101562.402344-.046875.855469-.453125 1.097656l-10.914063 6.449219c-.144531.082031-.304687.128906-.46875.136719-.019531 0-.035156 0-.054687 0zm0 0" fill-opacity=".235294"/><path d="m19.382812 10.414062c-.636718-.023437-1.167968.492188-1.167968 1.125v12.902344c0 .867188.957031 1.410156 1.703125.96875l10.914062-6.449218c.734375-.433594.734375-1.507813 0-1.941407l-10.914062-6.449219c-.160157-.097656-.347657-.152343-.535157-.15625zm-.007812.28125c.140625.003907.277344.042969.402344.117188l10.914062 6.449219c.558594.332031.558594 1.128906 0 1.457031l-10.914062 6.449219c-.574219.339843-1.28125-.066407-1.28125-.726563v-12.902344c0-.480468.398437-.859374.878906-.84375zm0 0" fill="#212121"/><path d="m2.976562 31.355469h41.675782v.539062h-41.675782zm0 0" fill-opacity=".470588"/><path d="m2.976562 30.886719h41.675782v.507812h-41.675782zm0 0" fill-opacity=".235294"/><path d="m2.976562 31.878906h41.675782v.507813h-41.675782zm0 0" fill="#f8f8f8" fill-opacity=".392157"/><path d="m4.960938 4.203125c-1.175782 0-2.125.949219-2.125 2.125v33.738281c0 1.175782.949218 2.125 2.125 2.125h37.707031c1.175781 0 2.125-.949218 2.125-2.125v-33.738281c0-1.175781-.949219-2.125-2.125-2.125zm0 .28125h37.707031c1.023437 0 1.84375.820313 1.84375 1.84375v33.738281c0 1.023438-.820313 1.84375-1.84375 1.84375h-37.707031c-1.023438 0-1.84375-.820312-1.84375-1.84375v-33.738281c0-1.023437.820312-1.84375 1.84375-1.84375zm0 0" fill="#212121"/></svg>

<?xml version="1.0" encoding="UTF-8"?>
<svg xmlns="http://www.w3.org/2000/svg" xmlns:xlink="http://www.w3.org/1999/xlink" width="48pt" height="48pt" viewBox="0 0 48 48" version="1.1">
<defs>
<linearGradient id="linear0" gradientUnits="userSpaceOnUse" x1="254" y1="233.5" x2="254" y2="254.666672" gradientTransform="matrix(0.093759,0,0,0.093759,-0.00000572259,20.158178)">
<stop offset="0" style="stop-color:rgb(0%,0%,0%);stop-opacity:0.27451;"/>
<stop offset="1" style="stop-color:rgb(0%,0%,0%);stop-opacity:0;"/>
</linearGradient>
<radialGradient id="radial0" gradientUnits="userSpaceOnUse" cx="450.908936" cy="189.579361" fx="450.908936" fy="189.579361" r="21.166656" gradientTransform="matrix(0.000000261256,-0.117199,-0.210958,-0.000000152308,79.684395,95.392999)">
<stop offset="0" style="stop-color:rgb(0%,0%,0%);stop-opacity:0.313725;"/>
<stop offset="0.222222" style="stop-color:rgb(0%,0%,0%);stop-opacity:0.27451;"/>
<stop offset="1" style="stop-color:rgb(0%,0%,0%);stop-opacity:0;"/>
</radialGradient>
<radialGradient id="radial1" gradientUnits="userSpaceOnUse" cx="450.908936" cy="189.579361" fx="450.908936" fy="189.579361" r="21.166656" gradientTransform="matrix(-0.000000261256,0.117199,0.210958,0.000000152308,-31.80678,-11.291218)">
<stop offset="0" style="stop-color:rgb(0%,0%,0%);stop-opacity:0.313725;"/>
<stop offset="0.222222" style="stop-color:rgb(0%,0%,0%);stop-opacity:0.27451;"/>
<stop offset="1" style="stop-color:rgb(0%,0%,0%);stop-opacity:0;"/>
</radialGradient>
<radialGradient id="radial2" gradientUnits="userSpaceOnUse" cx="450.908936" cy="189.579361" fx="450.908936" fy="189.579361" r="21.166656" gradientTransform="matrix(-0.000000261256,-0.117199,0.210958,-0.000000152308,-31.80678,95.392999)">
<stop offset="0" style="stop-color:rgb(0%,0%,0%);stop-opacity:0.313725;"/>
<stop offset="0.222222" style="stop-color:rgb(0%,0%,0%);stop-opacity:0.27451;"/>
<stop offset="1" style="stop-color:rgb(0%,0%,0%);stop-opacity:0;"/>
</radialGradient>
<radialGradient id="radial3" gradientUnits="userSpaceOnUse" cx="450.908936" cy="189.579361" fx="450.908936" fy="189.579361" r="21.166656" gradientTransform="matrix(0.000000261256,0.117199,-0.210958,0.000000152308,79.684393,-11.291219)">
<stop offset="0" style="stop-color:rgb(0%,0%,0%);stop-opacity:0.313725;"/>
<stop offset="0.222222" style="stop-color:rgb(0%,0%,0%);stop-opacity:0.27451;"/>
<stop offset="1" style="stop-color:rgb(0%,0%,0%);stop-opacity:0;"/>
</radialGradient>
<linearGradient id="linear1" gradientUnits="userSpaceOnUse" x1="254" y1="233.5" x2="254" y2="-168.666656" gradientTransform="matrix(0.093759,0,0,0.093759,0,20.158175)">
<stop offset="0" style="stop-color:rgb(67.058824%,27.843137%,73.72549%);stop-opacity:1;"/>
<stop offset="1" style="stop-color:rgb(72.941176%,40.784314%,78.431373%);stop-opacity:1;"/>
</linearGradient>
<linearGradient id="linear2" gradientUnits="userSpaceOnUse" x1="370.416656" y1="159.416672" x2="370.416656" y2="180.583328" gradientTransform="matrix(1,0,0,1,0,10.583338)">
<stop offset="0" style="stop-color:rgb(87.843137%,87.843137%,87.843137%);stop-opacity:1;"/>
<stop offset="1" style="stop-color:rgb(98.039216%,98.039216%,98.039216%);stop-opacity:1;"/>
</linearGradient>
<linearGradient id="linear3" gradientUnits="userSpaceOnUse" x1="211.666672" y1="159.416672" x2="211.666672" y2="180.583328" gradientTransform="matrix(1,0,0,1,0,10.583338)">
<stop offset="0" style="stop-color:rgb(89.803922%,22.352941%,20.784314%);stop-opacity:1;"/>
<stop offset="1" style="stop-color:rgb(93.72549%,32.54902%,31.372549%);stop-opacity:1;"/>
</linearGradient>
<linearGradient id="linear4" gradientUnits="userSpaceOnUse" x1="285.75" y1="138.25" x2="285.75" y2="201.75" gradientTransform="matrix(1,0,0,1,26.458323,10.583338)">
<stop offset="0" style="stop-color:rgb(87.843137%,87.843137%,87.843137%);stop-opacity:1;"/>
<stop offset="1" style="stop-color:rgb(98.039216%,98.039216%,98.039216%);stop-opacity:1;"/>
</linearGradient>
<linearGradient id="linear5" gradientUnits="userSpaceOnUse" x1="254" y1="53.583332" x2="254" y2="-105.166656" gradientTransform="matrix(0.093759,0,0,0.093759,-0.500986,20.408982)">
<stop offset="0" style="stop-color:rgb(87.843137%,87.843137%,87.843137%);stop-opacity:1;"/>
<stop offset="1" style="stop-color:rgb(96.078431%,96.078431%,96.078431%);stop-opacity:1;"/>
</linearGradient>
</defs>
<g id="surface1">
<path style=" stroke:none;fill-rule:nonzero;fill:url(#linear0);" d="M 7.691406 42.050781 L 40.1875 42.050781 L 40.1875 44.035156 L 7.691406 44.035156 Z M 7.691406 42.050781 "/>
<path style=" stroke:none;fill-rule:nonzero;fill:url(#radial0);" d="M 40.1875 42.050781 L 44.15625 42.050781 L 44.15625 40.066406 L 40.1875 40.066406 Z M 40.1875 42.050781 "/>
<path style=" stroke:none;fill-rule:nonzero;fill:url(#radial1);" d="M 7.691406 42.050781 L 3.722656 42.050781 L 3.722656 44.035156 L 7.691406 44.035156 Z M 7.691406 42.050781 "/>
<path style=" stroke:none;fill-rule:nonzero;fill:url(#radial2);" d="M 7.691406 42.050781 L 3.722656 42.050781 L 3.722656 40.066406 L 7.691406 40.066406 Z M 7.691406 42.050781 "/>
<path style=" stroke:none;fill-rule:nonzero;fill:url(#radial3);" d="M 40.1875 42.050781 L 44.15625 42.050781 L 44.15625 44.035156 L 40.1875 44.035156 Z M 40.1875 42.050781 "/>
<path style=" stroke:none;fill-rule:nonzero;fill:url(#linear1);" d="M 4.960938 4.34375 L 42.667969 4.34375 C 43.765625 4.34375 44.652344 5.234375 44.652344 6.328125 L 44.652344 40.066406 C 44.652344 41.164062 43.765625 42.050781 42.667969 42.050781 L 4.960938 42.050781 C 3.867188 42.050781 2.976562 41.164062 2.976562 40.066406 L 2.976562 6.328125 C 2.976562 5.234375 3.867188 4.34375 4.960938 4.34375 Z M 4.960938 4.34375 "/>
<path style="fill-rule:nonzero;fill:url(#linear2);stroke-width:3;stroke-linecap:round;stroke-linejoin:miter;stroke:rgb(12.941177%,12.941177%,12.941177%);stroke-opacity:1;stroke-miterlimit:4;" d="M 74.076259 170.004901 L 433.916896 170.004901 C 439.749673 170.004901 444.499219 174.754447 444.499219 180.587223 C 444.499219 186.42 439.749673 191.169546 433.916896 191.169546 L 74.076259 191.169546 C 68.243483 191.169546 63.493937 186.42 63.493937 180.587223 C 63.493937 174.754447 68.243483 170.004901 74.076259 170.004901 Z M 74.076259 170.004901 " transform="matrix(0.093759,0,0,0.093759,0,20.158175)"/>
<path style="fill-rule:nonzero;fill:url(#linear3);stroke-width:3;stroke-linecap:round;stroke-linejoin:miter;stroke:rgb(12.941177%,12.941177%,12.941177%);stroke-opacity:1;stroke-miterlimit:4;" d="M 74.076259 170.004901 L 338.675991 170.004901 C 344.508768 170.004901 349.258314 174.296157 349.258314 179.587319 L 349.258314 181.587128 C 349.258314 186.878289 344.508768 191.169546 338.675991 191.169546 L 74.076259 191.169546 C 68.243483 191.169546 63.493937 186.878289 63.493937 181.587128 L 63.493937 179.587319 C 63.493937 174.296157 68.243483 170.004901 74.076259 170.004901 Z M 74.076259 170.004901 " transform="matrix(0.093759,0,0,0.093759,0,20.158175)"/>
<path style="fill-rule:nonzero;fill:url(#linear4);stroke-width:3;stroke-linecap:round;stroke-linejoin:miter;stroke:rgb(12.941177%,12.941177%,12.941177%);stroke-opacity:1;stroke-miterlimit:4;" d="M 322.802507 148.840255 C 340.342499 148.840255 354.549476 163.047232 354.549476 180.587223 C 354.549476 198.127215 340.342499 212.334192 322.802507 212.334192 C 305.262516 212.334192 291.055539 198.127215 291.055539 180.587223 C 291.055539 163.047232 305.262516 148.840255 322.802507 148.840255 Z M 322.802507 148.840255 " transform="matrix(0.093759,0,0,0.093759,0,20.158175)"/>
<path style=" stroke:none;fill-rule:nonzero;fill:rgb(100%,100%,100%);fill-opacity:0.392157;" d="M 4.960938 4.34375 C 3.863281 4.34375 2.976562 5.230469 2.976562 6.328125 L 2.976562 6.824219 C 2.976562 5.726562 3.863281 4.839844 4.960938 4.839844 L 42.667969 4.839844 C 43.769531 4.839844 44.652344 5.726562 44.652344 6.824219 L 44.652344 6.328125 C 44.652344 5.230469 43.769531 4.34375 42.667969 4.34375 Z M 4.960938 4.34375 "/>
<path style=" stroke:none;fill-rule:nonzero;fill:rgb(0%,0%,0%);fill-opacity:0.235294;" d="M 4.960938 42.050781 C 3.863281 42.050781 2.976562 41.164062 2.976562 40.066406 L 2.976562 39.570312 C 2.976562 40.667969 3.863281 41.554688 4.960938 41.554688 L 42.667969 41.554688 C 43.769531 41.554688 44.652344 40.667969 44.652344 39.570312 L 44.652344 40.066406 C 44.652344 41.164062 43.769531 42.050781 42.667969 42.050781 Z M 4.960938 42.050781 "/>
<path style=" stroke:none;fill-rule:nonzero;fill:url(#linear5);" d="M 19.378906 10.554688 C 18.820312 10.535156 18.355469 10.984375 18.355469 11.539062 L 18.355469 24.441406 C 18.355469 25.207031 19.1875 25.679688 19.847656 25.289062 L 30.761719 18.839844 C 31.410156 18.457031 31.410156 17.523438 30.761719 17.140625 L 19.847656 10.691406 C 19.703125 10.605469 19.542969 10.558594 19.378906 10.554688 Z M 19.378906 10.554688 "/>
<path style=" stroke:none;fill-rule:nonzero;fill:rgb(100%,100%,100%);fill-opacity:0.588235;" d="M 19.324219 10.554688 C 18.792969 10.5625 18.355469 11 18.355469 11.539062 L 18.355469 12.03125 C 18.355469 11.472656 18.820312 11.027344 19.378906 11.042969 C 19.542969 11.050781 19.703125 11.097656 19.847656 11.179688 L 30.761719 17.632812 C 31.003906 17.773438 31.15625 17.996094 31.214844 18.234375 C 31.316406 17.835938 31.167969 17.378906 30.761719 17.140625 L 19.847656 10.691406 C 19.703125 10.605469 19.542969 10.558594 19.378906 10.554688 C 19.359375 10.554688 19.34375 10.554688 19.324219 10.554688 Z M 19.324219 10.554688 "/>
<path style=" stroke:none;fill-rule:nonzero;fill:rgb(0%,0%,0%);fill-opacity:0.235294;" d="M 19.324219 25.433594 C 18.792969 25.421875 18.355469 24.988281 18.355469 24.445312 L 18.355469 23.953125 C 18.355469 24.511719 18.820312 24.960938 19.378906 24.941406 C 19.542969 24.9375 19.703125 24.890625 19.847656 24.804688 L 30.761719 18.355469 C 31.003906 18.210938 31.15625 17.992188 31.214844 17.75 C 31.316406 18.152344 31.167969 18.605469 30.761719 18.847656 L 19.847656 25.296875 C 19.703125 25.378906 19.542969 25.425781 19.378906 25.433594 C 19.359375 25.433594 19.34375 25.433594 19.324219 25.433594 Z M 19.324219 25.433594 "/>
<path style=" stroke:none;fill-rule:nonzero;fill:rgb(12.941177%,12.941177%,12.941177%);fill-opacity:1;" d="M 19.382812 10.414062 C 18.746094 10.390625 18.214844 10.90625 18.214844 11.539062 L 18.214844 24.441406 C 18.214844 25.308594 19.171875 25.851562 19.917969 25.410156 L 30.832031 18.960938 C 31.566406 18.527344 31.566406 17.453125 30.832031 17.019531 L 19.917969 10.570312 C 19.757812 10.472656 19.570312 10.417969 19.382812 10.414062 Z M 19.375 10.695312 C 19.515625 10.699219 19.652344 10.738281 19.777344 10.8125 L 30.691406 17.261719 C 31.25 17.59375 31.25 18.390625 30.691406 18.71875 L 19.777344 25.167969 C 19.203125 25.507812 18.496094 25.101562 18.496094 24.441406 L 18.496094 11.539062 C 18.496094 11.058594 18.894531 10.679688 19.375 10.695312 Z M 19.375 10.695312 "/>
<path style=" stroke:none;fill-rule:nonzero;fill:rgb(0%,0%,0%);fill-opacity:0.470588;" d="M 2.976562 31.355469 L 44.652344 31.355469 L 44.652344 31.894531 L 2.976562 31.894531 Z M 2.976562 31.355469 "/>
<path style=" stroke:none;fill-rule:nonzero;fill:rgb(0%,0%,0%);fill-opacity:0.235294;" d="M 2.976562 30.886719 L 44.652344 30.886719 L 44.652344 31.394531 L 2.976562 31.394531 Z M 2.976562 30.886719 "/>
<path style=" stroke:none;fill-rule:nonzero;fill:rgb(97.254902%,97.254902%,97.254902%);fill-opacity:0.392157;" d="M 2.976562 31.878906 L 44.652344 31.878906 L 44.652344 32.386719 L 2.976562 32.386719 Z M 2.976562 31.878906 "/>
<path style=" stroke:none;fill-rule:nonzero;fill:rgb(12.941177%,12.941177%,12.941177%);fill-opacity:1;" d="M 4.960938 4.203125 C 3.785156 4.203125 2.835938 5.152344 2.835938 6.328125 L 2.835938 40.066406 C 2.835938 41.242188 3.785156 42.191406 4.960938 42.191406 L 42.667969 42.191406 C 43.84375 42.191406 44.792969 41.242188 44.792969 40.066406 L 44.792969 6.328125 C 44.792969 5.152344 43.84375 4.203125 42.667969 4.203125 Z M 4.960938 4.484375 L 42.667969 4.484375 C 43.691406 4.484375 44.511719 5.304688 44.511719 6.328125 L 44.511719 40.066406 C 44.511719 41.089844 43.691406 41.910156 42.667969 41.910156 L 4.960938 41.910156 C 3.9375 41.910156 3.117188 41.089844 3.117188 40.066406 L 3.117188 6.328125 C 3.117188 5.304688 3.9375 4.484375 4.960938 4.484375 Z M 4.960938 4.484375 "/>
</g>
</svg>
